X: 548
T: Ach wdzi?czny Jezu
C: Anonim
L: 1/8
M: 3/4
N: Derived from pl-sa--572-a-ix-52--001_anonim--ach-wdzieczny-jezu.krn
%%staves {1 2}
V: 1 clef=treble
V: 2 clef=bass
K: C
[V:1] CE2<[G2E2][cE] | 
[V:2] C,2E,2C,2 | 
[V:1] [cE][BD][B2D2]z2 | 
[V:2] G,2G,,2G,2 | 
[V:1] [cA][A2F2]<[G2E2][FD] | 
[V:2] C,2G,2G,,2 | 
[V:1] [FD][EC][E2C2]z2 | 
[V:2] C,2C,,2C,2 | 
[V:1] [GE][c2G2]<[e2G2][cA] | 
[V:2] C,2C2[A,2A,,2] | 
[V:1] [cA][BG][B2G2]z2 | 
[V:2] [A,2A,,2]G,2G,,2 | 
[V:1] [cA][A2F2]<[G2E2][FD] | 
[V:2] [F,2F,,2][E,2E,,2][D,2D,,2] | 
[V:1] [FD][EC][E2C2]z2 | 
[V:2] C,,C,C,C,C,C, | 
[V:1] [G4E4][^F^D][GE] | 
[V:2] C,,C,C,,C,C,,C, | 
[V:1] [A/F/][G/E/][^F/^D/][G/E/][E4C4] | 
[V:2] C,,2C,2C,,2 | 
[V:1] [AF][c2A2]<[c2A2][AF] | 
[V:2] F,,2F,2F,,2 | 
[V:1] [AF][GE][G2E2]z2 | 
[V:2] C,,2z C,E,G, | 
[V:1] [G3E3][F/D/][E/C/] [cA][B/G/][A/F/] | 
[V:2] C,2C2C,2 | 
[V:1] [AF][GE][G2E2]z2 | 
[V:2] C,2C2C,2 | 
[V:1] [GE][A/F/][G/E/][F2D2][E2C2] | 
[V:2] C,2G,2C,2 | 
[V:1] [E2C2][D2B,2]z2 |]  
[V:2] C,2[G,2G,,2]z2 |]  

